X:1
T:Title
%%score { 1 | 2 }
L:1/8
M:3/4
K:G
V:1 treble nm="Grand Piano"
V:2 treble 
V:1
 z2 z2[Q:1/4=94] dc | B3 G AG | E G3 DE | G3 G FG |[M:2/4] [FA]4 |[M:1/4] Bc | %6
[M:3/4] d3 B [CFA][B,G] | [CEA] [G,CE]3 [CEG][G,CE] | [G,B,D]3 [B,DG] [CFA][DFB] |[M:2/4] [B,G]4 | %10
[M:1/4] [B,D][B,D] |[M:3/4] [B,D]3 [B,D] [B,D][B,D] | [CE] [EG]3 [DB][CA] | [B,G]3 [CA] [CG][CE] | %14
[M:2/4] [B,D]4 |[M:1/4] Bc |[M:3/4] d3 B [CFA][B,G] | [CEA] [G,CE]3 [G,DG][EA] | B3 G AB | %19
[M:2/4] [B,G]4 |] %20
V:2
 z2 z2 [G,B,G][G,EG] | [G,DG]3 [G,B,D] [G,CD][K:bass][G,B,D] | [C,G,C] [C,CD]3 [G,B,][G,C] | %3
 [G,B,D]3 [B,D] [A,CD][G,B,D] |[M:2/4] [D,D]4 |[M:1/4][K:treble] [G,G][G,A,G] | %6
[M:3/4] [G,B,G]3 [G,DG][K:bass] D,E, | C, C,3 C,C, | D,3 D, D,D, |[M:2/4] G,4 | %10
[M:1/4] [G,,G,][G,,G,] |[M:3/4] [G,,G,]3 [G,,G,] [G,,G,][G,,G,] | [C,G,] [C,G,]3 [G,,G,][G,,G,] | %13
 [G,,G,]3 [G,,D,] [G,,E,][G,,F,] |[M:2/4] [G,,G,]4 |[M:1/4][K:treble] [G,G][A,G] | %16
[M:3/4] [G,B,G]3 [G,DG][K:bass] D,E, | C, C,3 B,,[C,G,] | [D,G,D]3 [D,G,B,] [D,F,C][D,F,D] | %19
[M:2/4] [G,,G,]4 |] %20

